X:600
T:The Haymaker's Jig
% Nottingham Music Database
S:Trad, arr Phil Rowe
M:6/8
K:G
B/2-c/2|:d2d dBd|gfg B3|cBc ABc|e2d B2c|\
d2d dBd|gfg B2g|fed ecA|1 G3 G2 B/2-c/2:|2 G3 G2 B/2-d/2||
|g2g gfe|dgd B3|cBc ABc|e2d B2d|\
g2g gfe|dgd B2g|fed ecA|1 G3 G2 B/2-d/2:|2 G3 G2 B/2-c/2||
